fs/predictions_24_filled.svg

<svg viewBox="0 0 24 24" fill="none" xmlns="http://www.w3.org/2000/svg" height="1em" width="1em">
  <path d="M16.6825 14.926L17.9673 18.7802C18.2336 19.5789 17.8933 20.4541 17.1573 20.8632C15.7856 21.6256 14.0643 22 12 22C9.93575 22 8.21443 21.6256 6.84269 20.8632C6.10675 20.4541 5.76645 19.579 6.0327 18.7802L7.31753 14.926C8.61832 15.9138 10.2407 16.5 12 16.5C13.7593 16.5 15.3817 15.9138 16.6825 14.926ZM12 2C13.3366 2 14.5824 2.38848 15.6308 3.05868C15.5482 3.37202 15.4224 3.60275 15.2626 3.76256C15.01 4.01509 14.5804 4.18271 13.9379 4.23364L13.7158 4.24625L13.3373 4.25586C11.168 4.41468 11.2222 7.75 13.5 7.75C14.3902 7.75 14.9565 7.93135 15.2626 8.23744C15.5151 8.48996 15.6827 8.91957 15.7336 9.56206L15.7463 9.78416L15.7559 10.1627C15.8521 11.4768 17.114 11.975 18.094 11.6571C17.0078 13.9296 14.6873 15.5 12 15.5C8.27208 15.5 5.25 12.4779 5.25 8.75C5.25 5.02208 8.27208 2 12 2ZM18.25 2C18.25 3.14961 18.5199 3.95921 19.0303 4.46967C19.5015 4.94087 20.2276 5.20706 21.2407 5.24522L21.5 5.25C22.4583 5.25 22.4983 6.6276 21.6198 6.7424L21.5 6.75C20.3504 6.75 19.5408 7.01987 19.0303 7.53033C18.5591 8.00153 18.2929 8.72761 18.2548 9.74072L18.25 10C18.25 11 16.75 11 16.75 10C16.75 8.85039 16.4801 8.04079 15.9697 7.53033C15.4985 7.05913 14.7724 6.79294 13.7593 6.75478L13.5 6.75C12.5417 6.75 12.5017 5.3724 13.3802 5.2576L13.5 5.25C14.6496 5.25 15.4592 4.98013 15.9697 4.46967C16.4801 3.95921 16.75 3.14961 16.75 2C16.75 1 18.25 1 18.25 2Z" fill="#212121"/>
</svg>

<svg viewBox="0 0 24 24" fill="none" xmlns="http://www.w3.org/2000/svg" height="1em" width="1em">
  <path d="m16.683 14.926 1.284 3.854a1.75 1.75 0 0 1-.81 2.083C15.786 21.626 14.064 22 12 22s-3.786-.374-5.157-1.137a1.75 1.75 0 0 1-.81-2.083l1.285-3.854A7.716 7.716 0 0 0 12 16.5c1.76 0 3.382-.586 4.683-1.574ZM12 2c1.337 0 2.582.388 3.63 1.059-.082.313-.208.544-.367.704-.253.252-.683.42-1.325.47l-.222.013-.379.01c-2.169.159-2.115 3.494.163 3.494.89 0 1.457.181 1.763.487.252.253.42.683.47 1.325l.013.222.01.379c.096 1.314 1.358 1.812 2.338 1.494A6.751 6.751 0 0 1 5.25 8.75 6.75 6.75 0 0 1 12 2Zm6.25 0c0 1.15.27 1.96.78 2.47.471.47 1.198.737 2.21.775l.26.005c.958 0 .998 1.378.12 1.492l-.12.008c-1.15 0-1.96.27-2.47.78-.47.472-.737 1.198-.775 2.21l-.005.26c0 1-1.5 1-1.5 0 0-1.15-.27-1.96-.78-2.47-.472-.47-1.198-.737-2.21-.775l-.26-.005c-.958 0-.998-1.378-.12-1.492l.12-.008c1.15 0 1.96-.27 2.47-.78.51-.51.78-1.32.78-2.47 0-1 1.5-1 1.5 0Z" fill="#212121"/>
</svg>
